X:1
T:Title
%%score ( 1 2 ) 3
L:1/8
Q:1/4=75
M:6/8
K:Ab
V:1 treble nm="Strings 1, Soprano"
V:2 treble 
V:3 bass nm="Strings 1, Bass"
V:1
 z3 z2 [A,C]/[B,D]/ | [CE][CE][CE] [CE]2 [CE]/[CF]/ | [CA][CA][DA] [CA]2 [CA]/[DB]/ | %3
w: 1.~I~ have~|giv en~ up~ all~ to~ my~|Sav ior~ so~ dear,~ And~ His~|
 [Ec][DB][CA] [DB][DA][DF] | [CE]3- [CE]2 [A,C]/[B,D]/ | [CE][CE][CE] [CE]2 [CE]/[CF]/ | %6
w: prais es~ I~ ev er~ will~|sing;~ * And~ though~|all~ of~ this~ world~ should~ for|
 [CA][CA][DA] [CA]2 [CA]/[DB]/ | [Ec][DB][CA] [DB][Ec][DB] | z3 z2 .c | %9
w: sake~ me~ while~ here,~ To~ my~|Sav ior~ I~ ev er~ will~||
 [Ae][Af][Ae] [Ac]2 [EA]/[EA]/ | [FB][FA][DF] [CE]2 [CA]/[DB]/ | [Ec][EB][EA] [Ac][Ae][Ae] | %12
w: |||
 [Ge]3- [Ge]2 [Ac]/[Ad]/ | [Ae][Af][Ae] [Ac]2 [EA]/[EA]/ | [FB][FA][DF] [CE]2 [CE]/[DF]/ | %15
w: |||
 [EA][EA][FB] [Ec][EA][EB] | [EA]6 |] %17
w: ||
V:2
 x6 | x6 | x6 | x6 | x6 | x6 | x6 | x6 | [CA]3- [CA]2 E/-[Ed]/ | x6 | x6 | x6 | x6 | x6 | x6 | x6 | %16
 x6 |] %17
V:3
 z3 z2 [A,,E,]/[A,,E,]/ | [A,,A,][A,,A,][A,,A,] [A,,A,]2 [A,,A,]/[A,,A,]/ | %2
 [A,,E,][A,,E,][A,,F,] [A,,E,]2 [A,,E,]/[A,,E,]/ | [A,,A,][A,,A,][A,,A,] [D,F,][D,F,][D,A,] | %4
 [A,,A,]3- [A,,A,]2 [A,,E,]/[A,,E,]/ | [A,,A,][A,,A,][A,,A,] [A,,A,]2 [A,,A,]/[A,,A,]/ | %6
 [A,,E,][A,,E,][A,,F,] [A,,E,]2 [A,,A,]/[A,,A,]/ | [A,,A,][A,,A,][A,,A,] [E,G,][E,G,][E,G,] | %8
 [A,,A,]3- [A,,A,]2 A,/B,/ | [A,C][A,D][A,C] [A,E]2 [A,C]/[A,C]/ | [D,D][D,D][D,A,] [A,,A,]2 A, | %11
 A,[A,D][A,C] [A,E][A,C][A,C] | [E,B,]3- [E,B,]2 A,/[A,B,]/ | [A,C][A,D][A,C] [A,E]2 [C,E]/[C,E]/ | %14
 [D,D][D,D][D,A,] [A,,A,]2 [A,,A,]/[A,,A,]/ | [C,A,][C,A,][D,A,] [E,A,][E,C][E,D] | [A,,C]6 |] %17

